!!!SOCIAL_FUNCTION:	songs of the horse society (dream societies)
!!!PDT:	1918

Specific Region: Dakotas, Minnesota, Montana, Nebraska
!!!REG: Dakotas and Montana
!!!LING_GROUP: Siouan
!!!LANG: Tone
!!!OTL@ENG: Horses Are Coming
!!!ONM: No. 110
**kern
*Imale
*clefF4
*k[f#]
*M2/4
*>[A,B,B]
*>norep[A,B]
*>A
*MM72
8f#
16g
16f#
4f#
=1||
*M3/4
8e
[8e
2e]
=2
16e
16B
16B
16B
4e
8B
16B
16B
=3
2B
4B
=4!|:
*>B
16B
8B
16B
8e
8e
8e
(16e
16B)
=5
[2B
8.B]
16B
=6
8.A
16A
8.B
16B
8B
(16B
16A)
=7||
*M2/4
16B
8A
16A
8G
8G
=8
16A
8G
16G
8E
8E
=9
2E
=10
16E
8BB
16BB
4F#
=11||
*M3/4
8E
[8E
2E]
=12
16F#
8E
16E
8F#
8E
8BB
16BB
16BB
=13||
*M2/4
2BB
=14
2BB
==:|!
*-
!!!CNT: Native American -- Sioux
!!!MRD: 1911/07//-1914///
!!!OCL: Frances Densmore
!!!YOR1: Teton Sioux Music, Bulletin 61,
!!!YOR2: Bureau of American Ethnology, Smithsonian Institution
!!!PPR: Government Printing Office
!!!PPP: Washington, D.C.
!!!PDT: 1918///
!!!ENC: Craig Stuart Sapp
!!!END: 2002/03/25/
!!!EEV: 2002/03/31/
!!!AGN: Society Song/Song of the Horse Society
!!!MPN@@SIO: Tatang'ka-ohi'tika
!!!MPN@ENG: Brave Buffalo
!!!TXO: Teton Sioux
!!!MLC: Standing Rock Reservation, South Dakota, United States of America
!!!ARL: 45.9/-100.7#
!!!catalog: Catalogue No. 605
!!!PPG: 301
!!!EFL: 110/245
!!!VTS: 2319190245
